X: 22
T:Le Loubard des Couches
M:3/8
L:1/16
C:Bouffard
S:French Creek
K:D
=c4B2|A2 F2 G2|A2 AG AB|=c2 B2 A2|=c4 B2|A2 F2 G2|A2 AG AB|A6:||!
=cA Fc AF|=cA Fc AF|1d2 dc de|f2 e2 d2:||2d2 de fe|d6||
